static/img/lowcode.svg

<svg fill="none" height="102" viewBox="0 0 69 102" width="69" xmlns="http://www.w3.org/2000/svg"><g stroke="#abb8ff"><rect height="6.77966" rx="3.38983" transform="matrix(0 1 -1 0 128.7205 32.6017)" width="6.77966" x="48.0594" y="80.6611"/><rect height="6.77966" rx="3.38983" transform="matrix(0 1 -1 0 149.0595 39.3815)" width="6.77966" x="54.839" y="94.2205"/><path d="m29.4152 72.1865v21.4237c0 1.8857 0 2.8285.5858 3.4143s1.5286.5858 3.4142.5858h14.6441"/><path d="m29.4153 77.2712v2.7797c0 1.8856 0 2.8284.5858 3.4142s1.5286.5858 3.4142.5858h7.8644"/><rect height="6.77966" rx="3.38983" transform="matrix(0 -1 1 0 -10.5677 32.1101)" width="6.77966" x="10.7712" y="21.3389"/><rect height="6.77966" rx="3.38983" transform="matrix(0 -1 1 0 -3.78796 11.77112)" width="6.77966" x="3.99158" y="7.77954"/><path d="m29.4152 29.8135v-21.42375c0-1.88562 0-2.82843-.5858-3.41422-.5857-.58578-1.5286-.58578-3.4142-.58578h-14.644"/><path d="m29.4153 24.7288v-2.7797c0-1.8856 0-2.8284-.5858-3.4142s-1.5286-.5858-3.4142-.5858h-7.8644"/></g><path d="m4.83893 33.5085c0-1.1045.89543-2 2-2h47.69487c1.1046 0 2 .8955 2 2v31.8983h-51.69487z" fill="#abb8ff" fill-opacity=".3"/><path d="m2.79657 32.9661c0-1.933 1.567-3.5 3.5-3.5h48.77963c1.933 0 3.5 1.567 3.5 3.5v34.483h-55.77963z" stroke="#abb8ff"/><path d="m1.10165 67.6018h59.16945v3.4322c0 .8284-.6715 1.5-1.5 1.5h-55.16944c-1.38071 0-2.50001-1.1193-2.50001-2.5z" stroke="#abb8ff"/><ellipse cx="49.9237" cy="55.4068" fill="#020013" rx="14.5763" ry="14.5763" stroke="#abb8ff"/><path d="m60.3473 65.8306 8.0509 8.0508" stroke="#abb8ff" stroke-linecap="round"/><path d="m40.918 56.291 4.2949 1.9805c.1719.082.2949.164.3691.2461.0742.0781.1114.1679.1114.2695 0 .1172-.0352.2109-.1055.2813-.0664.0703-.1602.1054-.2813.1054-.0546 0-.1152-.0097-.1816-.0293-.0664-.0195-.1602-.0586-.2812-.1172l-4.6583-2.1738c-.0156-.0039-.0351-.0117-.0585-.0234-.3594-.1641-.5391-.3438-.5391-.5391s.1758-.3711.5273-.5273c.0313-.0157.0547-.0274.0703-.0352l4.6583-2.1387c.1054-.0507.1953-.0859.2695-.1054.0742-.0235.1387-.0352.1933-.0352.1211 0 .2149.0332.2813.0996.0703.0664.1055.1563.1055.2696 0 .1054-.0372.1992-.1114.2812-.0742.0781-.1972.1563-.3691.2344zm7.7578 3.8672c-.086.1953-.168.3281-.2461.3984-.0742.0704-.1641.1055-.2695.1055-.1094 0-.2051-.041-.2872-.123-.082-.0782-.123-.1739-.123-.2871 0-.0313.0059-.0684.0176-.1114.0117-.039.0273-.082.0469-.1289l3.6562-7.8808c.0977-.2032.1836-.3399.2578-.4102.0742-.0742.1641-.1113.2695-.1113.1172 0 .2168.039.2989.1172.082.0781.123.1718.123.2812 0 .0313-.0058.0664-.0176.1055-.0078.039-.0214.0762-.041.1113zm10.0898-3.8672-4.2832-1.957c-.1797-.082-.3066-.1621-.3808-.2402-.0743-.0821-.1114-.1739-.1114-.2754 0-.1133.0332-.2032.0996-.2696.0704-.0664.1641-.0996.2813-.0996.0586 0 .123.0117.1934.0352.0742.0195.166.0547.2753.1054l4.6582 2.1387c.0157.0078.0391.0195.0704.0352.3515.1562.5273.332.5273.5273 0 .1914-.1719.3672-.5156.5274-.0391.0156-.0664.0273-.0821.0351l-4.6582 2.1738-.0234.0118c-.2031.0898-.3516.1347-.4453.1347-.1172 0-.2109-.0351-.2813-.1054-.0664-.0704-.0996-.1641-.0996-.2813 0-.1016.0371-.1914.1114-.2695.0742-.0821.2011-.1641.3808-.2461z" fill="#ea4040"/></svg>

<svg width="69" height="102" viewBox="0 0 69 102" fill="none" xmlns="http://www.w3.org/2000/svg">
    <rect x="48.0594" y="80.6611" width="6.77966" height="6.77966" rx="3.38983" transform="rotate(90 48.0594 80.6611)" stroke="#ABB8FF"/>
    <rect x="54.839" y="94.2205" width="6.77966" height="6.77966" rx="3.38983" transform="rotate(90 54.839 94.2205)" stroke="#ABB8FF"/>
    <path d="M29.4152 72.1865V93.6102C29.4152 95.4959 29.4152 96.4387 30.001 97.0245C30.5868 97.6103 31.5296 97.6103 33.4152 97.6103H48.0593" stroke="#ABB8FF"/>
    <path d="M29.4153 77.2712V80.0509C29.4153 81.9365 29.4153 82.8793 30.0011 83.4651C30.5869 84.0509 31.5297 84.0509 33.4153 84.0509H41.2797" stroke="#ABB8FF"/>
    <rect x="10.7712" y="21.3389" width="6.77966" height="6.77966" rx="3.38983" transform="rotate(-90 10.7712 21.3389)" stroke="#ABB8FF"/>
    <rect x="3.99158" y="7.77954" width="6.77966" height="6.77966" rx="3.38983" transform="rotate(-90 3.99158 7.77954)" stroke="#ABB8FF"/>
    <path d="M29.4152 29.8135L29.4152 8.38975C29.4152 6.50413 29.4152 5.56132 28.8294 4.97553C28.2437 4.38975 27.3008 4.38975 25.4152 4.38975L10.7712 4.38975" stroke="#ABB8FF"/>
    <path d="M29.4153 24.7288L29.4153 21.9491C29.4153 20.0635 29.4153 19.1207 28.8295 18.5349C28.2437 17.9491 27.3009 17.9491 25.4153 17.9491L17.5509 17.9491" stroke="#ABB8FF"/>
    <path d="M4.83893 33.5085C4.83893 32.404 5.73436 31.5085 6.83893 31.5085H54.5338C55.6384 31.5085 56.5338 32.404 56.5338 33.5085V65.4068H4.83893V33.5085Z" fill="#ABB8FF" fill-opacity="0.3"/>
    <path d="M2.79657 32.9661C2.79657 31.0331 4.36357 29.4661 6.29657 29.4661H55.0762C57.0092 29.4661 58.5762 31.0331 58.5762 32.9661V67.4491H2.79657V32.9661Z" stroke="#ABB8FF"/>
    <path d="M1.10165 67.6018H60.2711V71.034C60.2711 71.8624 59.5996 72.534 58.7711 72.534H3.60166C2.22095 72.534 1.10165 71.4147 1.10165 70.034V67.6018Z" stroke="#ABB8FF"/>
    <ellipse cx="49.9237" cy="55.4068" rx="14.5763" ry="14.5763" fill="#020013" stroke="#ABB8FF"/>
    <path d="M60.3473 65.8306L68.3982 73.8814" stroke="#ABB8FF" stroke-linecap="round"/>
    <path d="M40.918 56.291L45.2129 58.2715C45.3848 58.3535 45.5078 58.4355 45.582 58.5176C45.6562 58.5957 45.6934 58.6855 45.6934 58.7871C45.6934 58.9043 45.6582 58.998 45.5879 59.0684C45.5215 59.1387 45.4277 59.1738 45.3066 59.1738C45.252 59.1738 45.1914 59.1641 45.125 59.1445C45.0586 59.125 44.9648 59.0859 44.8438 59.0273L40.1855 56.8535C40.1699 56.8496 40.1504 56.8418 40.127 56.8301C39.7676 56.666 39.5879 56.4863 39.5879 56.291C39.5879 56.0957 39.7637 55.9199 40.1152 55.7637C40.1465 55.748 40.1699 55.7363 40.1855 55.7285L44.8438 53.5898C44.9492 53.5391 45.0391 53.5039 45.1133 53.4844C45.1875 53.4609 45.252 53.4492 45.3066 53.4492C45.4277 53.4492 45.5215 53.4824 45.5879 53.5488C45.6582 53.6152 45.6934 53.7051 45.6934 53.8184C45.6934 53.9238 45.6562 54.0176 45.582 54.0996C45.5078 54.1777 45.3848 54.2559 45.2129 54.334L40.918 56.291ZM48.6758 60.1582C48.5898 60.3535 48.5078 60.4863 48.4297 60.5566C48.3555 60.627 48.2656 60.6621 48.1602 60.6621C48.0508 60.6621 47.9551 60.6211 47.873 60.5391C47.791 60.4609 47.75 60.3652 47.75 60.252C47.75 60.2207 47.7559 60.1836 47.7676 60.1406C47.7793 60.1016 47.7949 60.0586 47.8145 60.0117L51.4707 52.1309C51.5684 51.9277 51.6543 51.791 51.7285 51.7207C51.8027 51.6465 51.8926 51.6094 51.998 51.6094C52.1152 51.6094 52.2148 51.6484 52.2969 51.7266C52.3789 51.8047 52.4199 51.8984 52.4199 52.0078C52.4199 52.0391 52.4141 52.0742 52.4023 52.1133C52.3945 52.1523 52.3809 52.1895 52.3613 52.2246L48.6758 60.1582ZM58.7656 56.291L54.4824 54.334C54.3027 54.252 54.1758 54.1719 54.1016 54.0938C54.0273 54.0117 53.9902 53.9199 53.9902 53.8184C53.9902 53.7051 54.0234 53.6152 54.0898 53.5488C54.1602 53.4824 54.2539 53.4492 54.3711 53.4492C54.4297 53.4492 54.4941 53.4609 54.5645 53.4844C54.6387 53.5039 54.7305 53.5391 54.8398 53.5898L59.498 55.7285C59.5137 55.7363 59.5371 55.748 59.5684 55.7637C59.9199 55.9199 60.0957 56.0957 60.0957 56.291C60.0957 56.4824 59.9238 56.6582 59.5801 56.8184C59.541 56.834 59.5137 56.8457 59.498 56.8535L54.8398 59.0273L54.8164 59.0391C54.6133 59.1289 54.4648 59.1738 54.3711 59.1738C54.2539 59.1738 54.1602 59.1387 54.0898 59.0684C54.0234 58.998 53.9902 58.9043 53.9902 58.7871C53.9902 58.6855 54.0273 58.5957 54.1016 58.5176C54.1758 58.4355 54.3027 58.3535 54.4824 58.2715L58.7656 56.291Z" fill="#EA4040"/>
</svg>
